X:41
T:Eighth of January
C:Old-Time/Bluegrass
M:4/4
K:C
L:1/8
cd | "C" edeg (ed)ce | "Dm" ded(c "F" A2) Bc | "G" d2 (de) d(BAG) | "C" cAG(E C2) cd |]
(ed)e(g ed)c(e | "Dm" de)d(c "F" A2) Bc | "G" d2 (de) d(BAG) | "C" cAG(E C2) CD |]
"C" E2 G2 G2 E2 | GAG(E "G" DC)CD | "C" E2 G2 G2 (GA) | "G" G(EDE) "C" C2 (CD) |
"C" E2 G2 G2 E2 | GAG(E "G" DC)CD | "C" E2 G2 G2 (GA) | "G" G(EDE) "C" C2 z2 |]

